icons/clock/clock-10.svg

<svg width="14" height="14" viewBox="0 0 14 14" fill="none"
    xmlns="http://www.w3.org/2000/svg">
    <circle cx="7" cy="7" r="4.5" stroke="green"/>
    <path d="M7.00033 3.5C7.27633 3.50018 7.50033 3.72397 7.50033 4V7C7.50033 7.01022 7.49703 7.02021 7.49643 7.03027C7.49534 7.04828 7.49364 7.06605 7.49057 7.08398C7.48836 7.09698 7.48497 7.10944 7.48178 7.12207C7.47692 7.1412 7.47144 7.15998 7.4642 7.17871C7.45891 7.19244 7.45306 7.20563 7.44662 7.21875C7.44165 7.22887 7.43867 7.24009 7.43295 7.25C7.42992 7.25525 7.4254 7.25955 7.42221 7.26465C7.41223 7.28053 7.40065 7.29496 7.389 7.30957C7.38101 7.31964 7.37323 7.32955 7.36459 7.33887C7.35104 7.35344 7.33681 7.36701 7.32162 7.37988C7.312 7.38803 7.30247 7.39598 7.29232 7.40332C7.27548 7.41555 7.25793 7.42643 7.23959 7.43652C7.22957 7.44201 7.21965 7.44737 7.20932 7.45215C7.19286 7.45978 7.1759 7.46585 7.15854 7.47168C7.14423 7.47648 7.13024 7.48186 7.11557 7.48535C7.10021 7.48899 7.08456 7.49097 7.06869 7.49316C7.05116 7.49562 7.03371 7.49746 7.01596 7.49805C7.01075 7.49821 7.00558 7.5 7.00033 7.5C6.98989 7.5 6.97937 7.49673 6.96908 7.49609C6.95309 7.49511 6.93717 7.49474 6.92123 7.49219C6.90219 7.48916 6.88383 7.4846 6.86557 7.47949C6.8528 7.4759 6.84006 7.47243 6.82748 7.46777C6.80566 7.45972 6.78525 7.44936 6.76498 7.43848C6.76039 7.43601 6.75488 7.43524 6.75033 7.43262L5.01791 6.43262C4.77892 6.29449 4.69726 5.98908 4.83529 5.75C4.97341 5.51097 5.27882 5.42934 5.51791 5.56738L6.50033 6.13379V4C6.50033 3.72386 6.72419 3.5 7.00033 3.5Z" fill="red"/>
</svg>

<svg xmlns="http://www.w3.org/2000/svg" width="14" height="14" fill="none" viewBox="0 0 14 14"><circle cx="7" cy="7" r="4.5" stroke="green"/><path fill="red" d="M7 3.5a.5.5 0 0 1 .5.5v3l-.004.03-.005.054-.01.038a.5.5 0 0 1-.034.097q-.006.016-.014.031l-.01.015q-.016.023-.034.045l-.024.029a.5.5 0 0 1-.206.133l-.043.013-.047.008-.053.005L7 7.5l-.03-.004q-.025 0-.049-.004l-.055-.013-.039-.011-.062-.03-.015-.005-1.732-1a.5.5 0 1 1 .5-.866l.982.567V4a.5.5 0 0 1 .5-.5"/></svg>
